svgs/sharp-solid/lock-keyhole.svg

<svg xmlns="http://www.w3.org/2000/svg" viewBox="0 0 448 512"><!--! Font Awesome Pro 6.4.0 by @fontawesome - https://fontawesome.com License - https://fontawesome.com/license (Commercial License) Copyright 2023 Fonticons, Inc. --><path d="M224 64c44.2 0 80 35.8 80 80v48H144V144c0-44.2 35.8-80 80-80zM80 144v48H0V512H448V192H368V144C368 64.5 303.5 0 224 0S80 64.5 80 144zM256 320v64 32H192V384 320 288h64v32z"/></svg>

<svg xmlns="http://www.w3.org/2000/svg" viewBox="0 0 448 512"><!--! Font Awesome Pro 6.6.0 by @fontawesome - https://fontawesome.com License - https://fontawesome.com/license (Commercial License) Copyright 2024 Fonticons, Inc. --><path d="M224 64c44.2 0 80 35.8 80 80l0 48-160 0 0-48c0-44.2 35.8-80 80-80zM80 144l0 48L0 192 0 512l448 0 0-320-80 0 0-48C368 64.5 303.5 0 224 0S80 64.5 80 144zM256 320l0 64 0 32-64 0 0-32 0-64 0-32 64 0 0 32z"/></svg>
